img/icons/website.svg

<svg width="25" height="24" viewBox="0 0 25 24" fill="none" xmlns="http://www.w3.org/2000/svg">
<g clip-path="url(#clip0)">
<path d="M20.8521 3.88125C18.6865 1.71094 15.799 0.515625 12.7334 0.515625C9.66777 0.515625 6.78027 1.71094 4.61465 3.88125C2.44902 6.05156 1.24902 8.93437 1.24902 12C1.24902 15.0656 2.44434 17.9531 4.61465 20.1188C6.78496 22.2844 9.66777 23.4844 12.7334 23.4844C15.799 23.4844 18.6865 22.2891 20.8521 20.1188C23.0178 17.9484 24.2178 15.0656 24.2178 12C24.2178 8.93437 23.0225 6.04688 20.8521 3.88125ZM23.1771 11.4844H18.724C18.6818 9.7125 18.4334 8.00625 17.9975 6.49219C18.8459 6.05625 19.6381 5.50781 20.3646 4.86094C22.0053 6.61406 23.0506 8.92969 23.1771 11.4844ZM13.249 12.5156H17.6975C17.66 14.1469 17.435 15.7078 17.0459 17.1047C15.8459 16.6219 14.5662 16.3406 13.249 16.2797V12.5156ZM19.624 4.14375C19.024 4.67344 18.3678 5.12344 17.674 5.49844C17.4959 5.00156 17.2943 4.53281 17.0693 4.09219C16.624 3.21094 16.1178 2.48906 15.56 1.93594C17.0834 2.3625 18.4662 3.12656 19.624 4.14375ZM13.249 1.70625C14.3225 1.94531 15.335 2.93437 16.1506 4.54688C16.3709 4.98281 16.5678 5.44687 16.7412 5.93906C15.6396 6.39375 14.4631 6.66094 13.249 6.72187V1.70625ZM17.0506 6.92813C17.435 8.31563 17.6553 9.86719 17.6928 11.4891H13.249V7.75781C14.5709 7.69688 15.8506 7.41094 17.0506 6.92813ZM12.2178 11.4844H7.76934C7.80684 9.8625 8.02715 8.31094 8.41152 6.92344C9.61152 7.41094 10.8959 7.69219 12.2131 7.74844V11.4844H12.2178ZM12.2225 1.70625V6.72187C11.0084 6.66094 9.82715 6.39375 8.73027 5.93906C8.90371 5.44687 9.10059 4.98281 9.3209 4.54688C10.1365 2.93437 11.149 1.94531 12.2225 1.70625ZM9.91152 1.93594C9.35371 2.48906 8.84746 3.21563 8.40215 4.09219C8.18184 4.53281 7.98027 5.00156 7.79746 5.49844C7.10371 5.12344 6.45215 4.67344 5.84746 4.14375C7.00527 3.12656 8.38809 2.3625 9.91152 1.93594ZM5.10684 4.86094C5.8334 5.50781 6.62559 6.05156 7.47402 6.49219C7.03809 8.01094 6.78496 9.7125 6.74746 11.4844H2.29434C2.4209 8.92969 3.46621 6.61406 5.10684 4.86094ZM2.29434 12.5156H6.74746C6.78965 14.3016 7.04277 16.0125 7.4834 17.5359C6.63965 17.9719 5.84746 18.5109 5.12559 19.1578C3.4709 17.4 2.4209 15.0797 2.29434 12.5156ZM5.86621 19.875C6.46621 19.35 7.11777 18.9 7.80684 18.5297C7.98496 19.0125 8.18184 19.4766 8.40215 19.9078C8.84746 20.7891 9.35371 21.5109 9.91152 22.0687C8.39746 21.6422 7.01934 20.8828 5.86621 19.875ZM12.2225 22.2938C11.149 22.0547 10.1365 21.0656 9.3209 19.4531C9.10527 19.0266 8.91309 18.5719 8.73965 18.0891C9.83652 17.6344 11.0131 17.3672 12.2225 17.3109V22.2938ZM8.42559 17.1047C8.03652 15.7078 7.81152 14.1469 7.77402 12.5156H12.2225V16.2797C10.9053 16.3359 9.62559 16.6172 8.42559 17.1047ZM13.2537 22.2938V17.3109C14.4631 17.3719 15.6396 17.6344 16.7365 18.0891C16.5631 18.5719 16.3709 19.0266 16.1553 19.4531C15.3396 21.0656 14.3271 22.0547 13.2537 22.2938ZM15.5646 22.0641C16.1225 21.5109 16.6287 20.7844 17.074 19.9031C17.2943 19.4719 17.4912 19.0078 17.6693 18.525C18.3584 18.8953 19.01 19.3453 19.61 19.8703C18.4568 20.8828 17.0787 21.6422 15.5646 22.0641ZM20.3553 19.1578C19.6334 18.5156 18.8412 17.9719 17.9975 17.5359C18.4381 16.0125 18.6912 14.2969 18.7334 12.5156H23.1865C23.0553 15.0797 22.0053 17.4 20.3553 19.1578Z" fill="white"/>
</g>
<defs>
<clipPath id="clip0">
<rect width="24" height="24" fill="white" transform="translate(0.733398)"/>
</clipPath>
</defs>
</svg>

<svg width="25" height="24" fill="none" xmlns="http://www.w3.org/2000/svg"><g clip-path="url(#clip0)"><path d="M20.852 3.881A11.399 11.399 0 0012.733.516 11.399 11.399 0 004.615 3.88 11.426 11.426 0 001.249 12a11.4 11.4 0 003.366 8.119 11.427 11.427 0 008.118 3.365c3.066 0 5.953-1.195 8.12-3.365A11.427 11.427 0 0024.217 12c0-3.066-1.195-5.953-3.366-8.119zm2.325 7.603h-4.453c-.042-1.771-.29-3.478-.727-4.992a11.388 11.388 0 002.368-1.631 10.429 10.429 0 012.812 6.623zm-9.928 1.032h4.449c-.038 1.63-.263 3.192-.652 4.589-1.2-.483-2.48-.764-3.797-.825v-3.764zm6.375-8.372c-.6.53-1.256.98-1.95 1.354a12.04 12.04 0 00-.605-1.406c-.445-.881-.951-1.603-1.509-2.156a10.41 10.41 0 014.064 2.208zm-6.375-2.438c1.073.24 2.086 1.228 2.902 2.84.22.437.417.9.59 1.393a10.52 10.52 0 01-3.492.783V1.706zm3.802 5.222c.384 1.388.604 2.94.642 4.561h-4.444V7.758a11.6 11.6 0 003.802-.83zm-4.833 4.556H7.769c.038-1.621.258-3.173.643-4.56 1.2.487 2.484.768 3.801.824v3.736h.005zm.005-9.778v5.016a10.493 10.493 0 01-3.493-.783c.174-.492.37-.956.59-1.392.816-1.613 1.829-2.602 2.902-2.84zm-2.311.23c-.558.553-1.065 1.28-1.51 2.156-.22.44-.422.91-.605 1.406a10.6 10.6 0 01-1.95-1.354 10.41 10.41 0 014.065-2.208zM5.107 4.86c.726.647 1.519 1.19 2.367 1.631-.436 1.519-.689 3.22-.727 4.992H2.294A10.43 10.43 0 015.107 4.86zm-2.813 7.655h4.453c.043 1.786.296 3.496.736 5.02-.843.436-1.636.975-2.357 1.622a10.413 10.413 0 01-2.832-6.642zm3.572 7.359c.6-.525 1.252-.975 1.94-1.345.179.482.376.947.596 1.378.445.881.952 1.603 1.51 2.16a10.462 10.462 0 01-4.046-2.193zm6.357 2.419c-1.074-.24-2.087-1.228-2.902-2.84a12.043 12.043 0 01-.581-1.365 10.348 10.348 0 013.482-.778v4.983zm-3.797-5.19c-.39-1.396-.614-2.957-.652-4.588h4.449v3.764a11.358 11.358 0 00-3.797.825zm4.828 5.19V17.31c1.21.06 2.386.323 3.482.778-.173.483-.365.938-.58 1.364-.816 1.613-1.829 2.602-2.902 2.84zm2.31-.23c.558-.553 1.065-1.28 1.51-2.16.22-.432.417-.896.595-1.379.69.37 1.341.82 1.941 1.345a10.342 10.342 0 01-4.045 2.194zm4.791-2.906a11.47 11.47 0 00-2.358-1.622c.441-1.524.694-3.24.736-5.02h4.453a10.462 10.462 0 01-2.83 6.642z" fill="#fff"/></g><defs><clipPath id="clip0"><path fill="#fff" transform="translate(.733)" d="M0 0h24v24H0z"/></clipPath></defs></svg>
